X:1
T:Behold the Bridegroom
T:Ralph Erskine Hudson, 1879
T:Behold the Bridegroom
T:Public Domain
T:Public Domain
T:Public Domain
C:Ralph Erskine Hudson, 1879
Z:Public Domain
%%score ( 1 2 ) ( 3 4 )
L:1/8
M:4/4
K:Ab
V:1 treble 
V:2 treble 
V:3 bass 
V:4 bass 
V:1
 [CE][CE] | [C-A]<[CA] [EA]>[EA] [EB][EA][DF][CE] | [CA]2 [EA]>[EA] [EA]2 [EA][EB] | %3
w: 1.~Are you|rea- dy for the Bride- groom When He|comes, when He comes? Are you|
w: 2.~Have your|la- mps trimmed and burn- ing When He|comes, when He comes; Have your|
w: 3.~We will|all go out and meet Him When He|comes, when He comes; We will|
w: 4.~We will|cha- nt al- le- lu- ias When He|comes, when He comes; We will|
 [A-c]<[Ac] [Ac]>[Ac] [Ae][Ac][EB][EA] | [GB]2 [GB]>[GB] [GB]3 E | [Ec]3 [DB] [DB] [CA]2 [CA] | %6
w: rea- dy for the Bride- groom When He|comes, when He comes? Be-|He com- eth! Be- hold!|
w: la- mps trimmed and burn- ing When He|comes, when He comes; He|ly com- eth! He quick-|
w: all go out to meet Him When he|comes, when He comes; He|ly com- eth! He sure-|
w: cha- nt al- le- lu- ias When He|comes, when He comes; Lo!|He com- eth! lo! now|
 [FA]3 [FA] [FB] [FA]2 [DF] | [CE]3 [EA] [EA][EG][EA][EB] | [Ac]2 [EB]2 [EA]2 ||"^Refrain" [Gc]2 | %10
w: He com- eth! Be robed|and rea- dy, for the Bride-|groom comes. *||
w: ly com- eth! O soul,|be rea- dy when the Bride-|groom comes. Be-|hold|
w: ly com- eth! We’ll go|to meet Him when the Bride-|groom comes. *||
w: He com- eth! Sing al-|le- lu- ia! for the Bride-|groom comes. *||
 [Fd]3 [Fd] [Fd][Fd] [FA]>[FB] | [Ec]2 [Ec]>[Ec] [Ec]3 [Ac] | [Ae]3 [Ac] [Gd][Ac][EB][FA] | %13
w: |||
w: the Bride- groom, for He comes,|for He comes! Be- hold|the Bride- groom, for He comes,|
w: |||
w: |||
 [GB]2 [AB]>[AB] [GB]3 E | [Ec]3 [DB] [DB] [CA]2 [CA] | [EG]3 [FA] [FB] [FA]2 [DF] | %16
w: |||
w: for He comes! Be- hold!|com- eth! be- hold! He|com- eth! Be robed and|
w: |||
w: |||
 [CE]3 [EA] [EA][EG][EA][EB] | [Ac]2 [EB]2 [EA]2 |] %18
w: ||
w: rea- dy, for the Bride- groom|comes. * *|
w: ||
w: ||
V:2
 x2 | x8 | x8 | x8 | x7 E | x8 | x8 | x8 | x6 || x2 | x8 | x8 | x8 | x7 E | x8 | x8 | x8 | x6 |] %18
w: ||||hold!||||||||||||||
w: ||||quick-|||||||||He|||||
w: ||||sure-||||||||||||||
w: ||||now||||||||||||||
V:3
 [A,,A,][A,,A,] | [A,,A,]-<[A,,A,] [A,,C]>[A,,C] [A,,D][A,,C][A,,A,][A,,A,] | %2
 [A,,A,]2 [A,,C]>[A,,C] [A,,C]2 [A,,C][A,,C] | [A,E]-<[A,E] [A,E]>[A,E] [A,C][A,E][A,,D][A,,C] | %4
 [E,D]2 [E,E]>[E,E] [E,E]3 E, | [A,,A,]3 [E,G,] [E,G,] [F,A,]2 [F,A,] | %6
 [D,D]3 [D,D] [D,D] [D,D]2 [D,A,] | [A,,A,]3 [A,,C] [E,C][E,B,][E,C][E,D] | %8
 [E,E]2 [E,D]2 [A,,C]2 || [A,,A,]2 | [D,A,]3 [D,A,] [D,A,][D,A,] [D,A,]>[D,A,] | %11
 [A,,A,]2 [A,,A,]>[A,,A,] [A,,A,]3 A, | [A,C]3 [A,E] [B,E][A,E][G,E][F,C] | %13
 [E,E]2 [F,D]>[F,D] [E,E]3 E, | [A,,A,]3 [E,G,] [E,G,] [F,A,]2 [F,A,] | %15
 [D,D]3 [D,D] [D,D] [D,D]2 [D,A,] | [A,,A,]3 [A,,C] [E,C][E,B,][E,C][E,D] | %17
 [E,E]2 [E,D]2 [A,,C]2 |] %18
V:4
 x2 | x8 | x8 | x8 | x7 E, | x8 | x8 | x8 | x6 || x2 | x8 | x7 A, | x8 | x7 E, | x8 | x8 | x8 | %17
 x6 |] %18

